src/assets/svg-icons/team.svg

<svg width="29" height="30" viewBox="0 0 29 30" fill="none" xmlns="http://www.w3.org/2000/svg">
<g clip-path="url(#clip0_1002_13393)">
<path d="M14.4493 3.81211C14.7644 3.81211 15.0198 3.54791 15.0198 3.22201V0.590098C15.0198 0.264199 14.7644 0 14.4493 0C14.1343 0 13.8789 0.264199 13.8789 0.590098V3.22201C13.879 3.54791 14.1344 3.81211 14.4493 3.81211Z" fill="black"/>
<path d="M28.393 20.2724L27.3853 19.2328C27.0268 18.8625 26.549 18.6585 26.0399 18.6585C25.7144 18.6585 25.4019 18.7422 25.125 18.8992L23.2261 16.9371L23.3186 16.8416C24.0889 16.0431 24.0887 14.7455 23.3185 13.9497C23.0433 13.6645 22.6999 13.4743 22.3256 13.3942C22.3771 13.2102 22.4042 13.0174 22.4042 12.8201C22.4042 12.272 22.1984 11.758 21.8258 11.3741C21.5505 11.0889 21.2072 10.8987 20.8328 10.8187C20.8844 10.6346 20.9115 10.4419 20.9115 10.2446C20.9115 9.69636 20.7057 9.18244 20.3325 8.79801C20.0506 8.50679 19.7042 8.32246 19.3404 8.244C19.535 7.54984 19.3687 6.76885 18.8408 6.22181C18.4014 5.76918 17.8051 5.57465 17.2305 5.63769L13.4676 4.90088C12.8937 4.78826 12.177 4.71379 11.7246 5.14064C11.6961 5.16759 11.667 5.19859 11.6383 5.2331C10.9369 4.96861 10.1188 5.12611 9.55706 5.70654C9.18442 6.09156 8.97916 6.60531 8.97916 7.15316C8.97916 7.3505 9.00617 7.54322 9.05766 7.72732C8.68372 7.8073 8.34076 7.99726 8.06645 8.28156C7.69307 8.66623 7.48719 9.17939 7.48679 9.7266C7.48662 9.92441 7.51375 10.1178 7.56552 10.3023C7.19141 10.3821 6.84822 10.5718 6.57306 10.8561C6.19969 11.2419 5.99408 11.7559 5.99408 12.3035C5.99408 12.7229 6.11512 13.1225 6.33942 13.46C6.05622 13.5593 5.7968 13.7246 5.57959 13.949C4.80871 14.7455 4.80842 16.0431 5.5801 16.8428L5.67225 16.9377L3.77309 18.8988C3.06729 18.555 2.19769 18.6838 1.61525 19.2856L0.606936 20.3257C0.248287 20.6963 0.0508379 21.1906 0.0507812 21.7175C0.0507812 22.2445 0.248287 22.7389 0.606936 23.1095L1.86532 24.4097C2.0882 24.64 2.4494 24.6398 2.672 24.4092C2.89465 24.1786 2.89442 23.805 2.67154 23.5747L1.41316 22.2745C1.27031 22.1269 1.19164 21.9291 1.19164 21.7176C1.19164 21.5061 1.27031 21.3084 1.41282 21.1611L2.42119 20.1209C2.67313 19.8606 3.05874 19.8218 3.35157 20.0029C3.37219 20.0349 3.39603 20.0654 3.42333 20.0937C3.47221 20.1444 3.52801 20.1832 3.58725 20.2117L9.36986 26.1849C9.39733 26.2468 9.43506 26.3051 9.48428 26.3561C9.5322 26.4057 9.58685 26.4441 9.64485 26.4723C9.76714 26.6154 9.83471 26.7981 9.83471 26.9929C9.83471 27.2045 9.75604 27.4022 9.61319 27.5498L8.60584 28.5907C8.30819 28.8972 7.82403 28.8972 7.52729 28.5916L6.2689 27.2897C6.04613 27.0593 5.68499 27.0593 5.46223 27.2897C5.23946 27.5202 5.23946 27.8938 5.46223 28.1242L6.72152 29.427C7.09217 29.8089 7.57894 29.9997 8.06594 29.9997C8.55305 29.9997 9.04038 29.8086 9.41149 29.4264L10.4195 28.3849C10.7781 28.0143 10.9756 27.52 10.9756 26.9929C10.9756 26.6168 10.8745 26.2577 10.6865 25.9479L12.8239 23.7395C12.8262 23.7371 12.8285 23.7347 12.8308 23.7323C13.0755 23.4706 13.7571 23.5196 14.4162 23.5669C14.8845 23.6006 15.4066 23.638 15.9167 23.5772L18.2573 25.9957C18.1057 26.2817 18.0248 26.6045 18.0248 26.9407C18.0248 27.4672 18.2223 27.9612 18.5809 28.3318L19.589 29.3733C19.9474 29.7437 20.4251 29.9477 20.9342 29.9477C21.4433 29.9477 21.921 29.7437 22.2795 29.3733L28.3934 23.0563C28.752 22.6858 28.9495 22.1915 28.9495 21.6645C28.9494 21.1376 28.7519 20.6433 28.393 20.2724ZM13.2552 6.06045L15.7296 6.54496L14.2485 8.07654C14.0194 7.96263 13.7054 7.75017 13.3609 7.40927C12.8894 6.94263 12.5521 6.40386 12.5214 6.06783C12.5213 6.06765 12.5213 6.06748 12.5213 6.0673C12.5213 6.06724 12.5213 6.06718 12.5213 6.06713C12.5191 6.04299 12.5185 6.02371 12.5188 6.009C12.5934 5.99025 12.7915 5.96945 13.2552 6.06045ZM10.3632 6.54156C10.6522 6.24291 11.1011 6.20845 11.4277 6.4372C11.6127 7.23982 12.2746 7.96726 12.5723 8.26199C12.793 8.48043 13.5011 9.13533 14.2158 9.31533C14.3124 9.45871 14.3651 9.62963 14.3651 9.80998C14.3651 10.0423 14.2787 10.2595 14.1213 10.4222C13.9643 10.5848 13.754 10.6744 13.529 10.6744C13.304 10.6744 13.0937 10.5848 12.936 10.4214L12.936 10.4213L12.9357 10.4211L10.3632 7.76465C10.2063 7.60263 10.12 7.38543 10.12 7.15316C10.12 6.92084 10.2064 6.70363 10.3632 6.54156ZM8.87267 9.11658C9.02962 8.95398 9.2397 8.86439 9.46434 8.86439C9.68926 8.86439 9.90002 8.95416 10.058 9.1174L12.1295 11.256C12.4556 11.594 12.4556 12.1439 12.1306 12.4807C11.9728 12.6433 11.7617 12.7329 11.5364 12.7329C11.311 12.7329 11.1 12.6433 10.9428 12.4814L10.9428 12.4814L9.37128 10.8561C9.36884 10.8535 9.36618 10.8512 9.36369 10.8486L8.87205 10.3403C8.7143 10.1772 8.62747 9.95963 8.62765 9.72748C8.62787 9.49609 8.71442 9.27959 8.87267 9.11658ZM7.37929 11.6911C7.53635 11.5288 7.74688 11.4395 7.9722 11.4395C8.19565 11.4395 8.40437 11.5275 8.56075 11.687L10.1371 13.3169C10.2942 13.4788 10.3808 13.6958 10.3808 13.9278C10.3808 14.1598 10.2942 14.3768 10.1364 14.5394C9.97943 14.7016 9.76912 14.7909 9.5442 14.7909C9.31894 14.7909 9.10796 14.7013 8.95072 14.5394L8.37928 13.9489C8.37916 13.9487 8.37899 13.9486 8.37888 13.9485L7.37934 12.9157C7.22177 12.7529 7.13499 12.5354 7.13499 12.3034C7.13499 12.0714 7.22177 11.8538 7.37929 11.6911ZM6.38581 14.784C6.54355 14.621 6.75437 14.5312 6.9794 14.5312C7.20438 14.5312 7.41514 14.6209 7.57283 14.7838L8.14507 15.3751C8.3023 15.537 8.38885 15.754 8.38885 15.9861C8.38885 16.2181 8.30225 16.435 8.14388 16.5982C7.98693 16.7608 7.77662 16.8504 7.55164 16.8504C7.32661 16.8504 7.1163 16.7609 6.95822 16.5971L6.88657 16.5232C6.88561 16.5222 6.88487 16.5212 6.88396 16.5203C6.88289 16.5192 6.88175 16.5183 6.88068 16.5172L6.38637 16.0078C6.06018 15.6697 6.0599 15.1207 6.38581 14.784ZM18.0104 21.4905C17.7877 21.2599 17.4265 21.2597 17.2037 21.49L16.6962 22.0144C16.214 22.5132 15.3402 22.4504 14.4952 22.3898C13.5775 22.3238 12.6286 22.2557 12.0146 22.9078L9.9135 25.0787L4.65935 19.6514L6.51874 17.7313C6.82608 17.9262 7.1807 18.0307 7.55176 18.0307C8.08186 18.0307 8.57893 17.8181 8.95021 17.4333C9.32398 17.0482 9.52987 16.5343 9.52987 15.9861C9.52987 15.981 9.52953 15.976 9.52953 15.9709C9.53446 15.9709 9.53939 15.9712 9.54432 15.9712C10.0737 15.9712 10.5704 15.7593 10.9422 15.3752C11.3159 14.9901 11.5218 14.4761 11.5218 13.9279C11.5218 13.9228 11.5215 13.9178 11.5215 13.9127C11.5265 13.9127 11.5314 13.9131 11.5365 13.9131C12.0657 13.9131 12.5626 13.7014 12.9369 13.3158C13.3255 12.9132 13.5177 12.3831 13.514 11.8542C13.5191 11.8543 13.5242 11.8545 13.5293 11.8545C14.0594 11.8545 14.5564 11.642 14.9282 11.2566C15.3009 10.8716 15.5061 10.3578 15.5061 9.80998C15.5061 9.42683 15.4054 9.06056 15.2177 8.74328L16.8474 7.05806C16.9688 6.93297 17.1186 6.85445 17.2755 6.82205C17.2925 6.82017 17.3093 6.81736 17.3259 6.81396C17.5777 6.77804 17.8422 6.85843 18.0347 7.05683C18.3609 7.39486 18.3609 7.94482 18.0359 8.28162L17.5396 8.79297C17.538 8.79467 17.5362 8.79619 17.5346 8.79789L16.9629 9.38828C16.7399 9.61855 16.7397 9.9922 16.9624 10.2228C17.1851 10.4534 17.5462 10.4536 17.769 10.2233L18.2674 9.70849C18.2675 9.70838 18.2676 9.70826 18.2677 9.70814L18.343 9.63051C18.6701 9.29523 19.2001 9.29593 19.5268 9.63349C19.6841 9.79545 19.7707 10.0124 19.7707 10.2445C19.7707 10.4764 19.6841 10.6934 19.5256 10.8566L19.0264 11.3741C19.0264 11.3741 19.0263 11.3742 19.0262 11.3743L18.4546 11.9632C18.2314 12.1932 18.2307 12.5669 18.453 12.7977C18.6753 13.0286 19.0364 13.0294 19.2597 12.7994L19.8339 12.2078C19.9908 12.0452 20.2011 11.9556 20.4261 11.9556C20.6511 11.9556 20.8615 12.0452 21.0196 12.209C21.1768 12.371 21.2634 12.588 21.2634 12.82C21.2634 13.052 21.1768 13.2689 21.0187 13.4318L20.0235 14.4617C19.8008 14.6922 19.8009 15.0658 20.0236 15.2962C20.135 15.4114 20.2809 15.469 20.4269 15.469C20.5729 15.469 20.7189 15.4113 20.8303 15.2961L21.318 14.7913C21.3208 14.7886 21.3238 14.7862 21.3266 14.7833C21.4835 14.6206 21.6938 14.5311 21.9188 14.5311C22.1439 14.5311 22.3542 14.6206 22.5117 14.7839C22.8375 15.1206 22.8372 15.6696 22.5117 16.007L22.0158 16.5194C22.0156 16.5196 22.0154 16.5198 22.0152 16.52C22.0151 16.5201 22.0149 16.5204 22.0147 16.5205L21.2276 17.3338C21.0048 17.5641 21.0045 17.9378 21.2271 18.1683C21.3385 18.2837 21.4847 18.3414 21.6307 18.3414C21.7766 18.3414 21.9225 18.2839 22.0339 18.1688L22.4188 17.7711L24.264 19.6776L19.0103 25.1059L17.1279 23.1609C17.2592 23.0736 17.3847 22.971 17.5026 22.849L18.0098 22.325C18.2328 22.0947 18.233 21.7211 18.0104 21.4905ZM27.5871 22.2213L21.4732 28.5383C21.3302 28.6861 21.1388 28.7675 20.9342 28.7675C20.7296 28.7675 20.5381 28.6861 20.3951 28.5382L19.387 27.4967C19.2442 27.3492 19.1655 27.1517 19.1655 26.9407C19.1655 26.7298 19.2442 26.5323 19.387 26.3847L25.5009 20.0678C25.644 19.9199 25.8354 19.8385 26.04 19.8385C26.2446 19.8385 26.436 19.9199 26.5794 20.0681L27.5871 21.1076C27.73 21.2552 27.8087 21.4529 27.8087 21.6644C27.8086 21.876 27.7299 22.0738 27.5871 22.2213Z" fill="black"/>
<path d="M6.87498 3.31495C6.98633 3.42991 7.13213 3.48733 7.27792 3.48733C7.42405 3.48733 7.57024 3.42956 7.68165 3.31407C7.90419 3.08339 7.90385 2.70979 7.68086 2.47958L5.60226 0.333582C5.37932 0.103367 5.01813 0.10366 4.79559 0.334402C4.57304 0.565086 4.57338 0.93868 4.79638 1.16889L6.87498 3.31495Z" fill="black"/>
<path d="M21.6212 3.48731C21.767 3.48731 21.913 3.42977 22.0243 3.31475L24.1013 1.1687C24.3242 0.938423 24.3244 0.564771 24.1018 0.334204C23.8792 0.103638 23.518 0.103403 23.2951 0.333735L21.2181 2.47979C20.9952 2.71006 20.995 3.08372 21.2176 3.31428C21.329 3.42965 21.4751 3.48731 21.6212 3.48731Z" fill="black"/>
<path d="M3.55817 25.3834C3.33733 25.6158 3.34039 25.9895 3.56508 26.2179L3.56673 26.2196C3.67757 26.3323 3.8215 26.3884 3.96536 26.3884C4.11302 26.3884 4.26069 26.3293 4.37255 26.2116C4.59339 25.9792 4.58948 25.6048 4.36485 25.3763C4.14027 25.1478 3.77913 25.1511 3.55817 25.3834Z" fill="black"/>
<path d="M19.4059 20.6406C19.4926 20.6406 19.5807 20.6201 19.6633 20.5771C19.9446 20.4303 20.0576 20.0754 19.9157 19.7845C19.7739 19.4935 19.4308 19.3765 19.1496 19.5233L19.1464 19.525C18.8651 19.6717 18.7537 20.0258 18.8955 20.3167C18.9957 20.5223 19.1971 20.6406 19.4059 20.6406Z" fill="black"/>
</g>
<defs>
<clipPath id="clip0_1002_13393">
<rect width="29" height="30" fill="white"/>
</clipPath>
</defs>
</svg>

<svg xmlns="http://www.w3.org/2000/svg" width="29" height="30" fill="none" viewBox="0 0 29 30"><g fill="#000" clip-path="url(#a)"><path d="M14.45 3.812a.58.58 0 0 0 .57-.59V.59a.58.58 0 0 0-.57-.59.58.58 0 0 0-.571.59v2.632c0 .326.255.59.57.59Zm13.943 16.46-1.008-1.04a1.86 1.86 0 0 0-2.26-.333l-1.899-1.962.093-.095a2.1 2.1 0 0 0 0-2.892 1.94 1.94 0 0 0-.993-.556c.051-.184.078-.377.078-.574 0-.548-.206-1.062-.578-1.446a1.94 1.94 0 0 0-.993-.555 2.15 2.15 0 0 0 .079-.574 2.06 2.06 0 0 0-.58-1.447 1.949 1.949 0 0 0-.992-.554 2.101 2.101 0 0 0-.5-2.022 1.941 1.941 0 0 0-1.61-.584L13.468 4.9c-.574-.113-1.291-.187-1.743.24a1.064 1.064 0 0 0-.087.092 1.936 1.936 0 0 0-2.08.474 2.066 2.066 0 0 0-.579 1.446c0 .198.027.39.079.574-.374.08-.717.27-.992.555a2.065 2.065 0 0 0-.58 1.445c0 .197.028.39.08.575a1.94 1.94 0 0 0-.993.554 2.07 2.07 0 0 0-.579 1.447c0 .42.121.82.345 1.157-.283.1-.542.265-.76.489a2.099 2.099 0 0 0 .001 2.894l.092.095-1.899 1.96a1.86 1.86 0 0 0-2.158.388l-1.008 1.04c-.359.37-.556.865-.556 1.392 0 .526.197 1.02.556 1.392l1.258 1.3c.223.23.584.23.807 0a.605.605 0 0 0 0-.835l-1.259-1.3a.795.795 0 0 1-.221-.557c0-.212.078-.41.22-.557l1.01-1.04c.251-.26.637-.3.93-.118a.594.594 0 0 0 .235.209l5.783 5.973a.59.59 0 0 0 .275.287c.122.143.19.326.19.52 0 .212-.079.41-.222.558l-1.007 1.04a.748.748 0 0 1-1.079.002L6.27 27.29a.557.557 0 0 0-.807 0 .605.605 0 0 0 0 .834l1.26 1.303a1.867 1.867 0 0 0 2.69 0l1.007-1.042c.36-.37.557-.865.557-1.392a2.01 2.01 0 0 0-.29-1.045l2.138-2.209.007-.007c.245-.261.926-.212 1.585-.165.468.034.99.071 1.5.01l2.341 2.419a2.013 2.013 0 0 0-.232.945c0 .526.197 1.02.556 1.39l1.008 1.042a1.859 1.859 0 0 0 2.69 0l6.114-6.317c.359-.37.556-.864.556-1.392a1.99 1.99 0 0 0-.556-1.392ZM13.255 6.06l2.475.485-1.482 1.532a3.601 3.601 0 0 1-.887-.668c-.472-.466-.809-1.005-.84-1.341a.532.532 0 0 1-.002-.059c.074-.019.272-.04.736.051Zm-2.892.482a.82.82 0 0 1 1.065-.105c.185.803.847 1.53 1.144 1.825.221.218.93.873 1.644 1.053a.89.89 0 0 1-.095 1.107.817.817 0 0 1-.592.252.817.817 0 0 1-.593-.253l-2.573-2.656a.873.873 0 0 1-.243-.612.87.87 0 0 1 .243-.611Zm-1.49 2.575a.82.82 0 0 1 1.185 0l2.072 2.139a.89.89 0 0 1 0 1.225.822.822 0 0 1-.594.252.822.822 0 0 1-.593-.252L9.37 10.856l-.007-.007-.492-.509a.874.874 0 0 1-.244-.613c0-.23.086-.447.245-.61ZM7.379 11.69a.818.818 0 0 1 .593-.252c.224 0 .432.088.589.248l1.576 1.63a.871.871 0 0 1 .244.61.872.872 0 0 1-.245.612.822.822 0 0 1-1.186 0l-.57-.59h-.001l-1-1.033a.875.875 0 0 1-.244-.613c0-.232.087-.45.244-.612Zm-.993 3.093a.82.82 0 0 1 1.187 0l.572.591a.87.87 0 0 1 .244.611.872.872 0 0 1-.245.612.817.817 0 0 1-.592.252.817.817 0 0 1-.594-.253l-.071-.074-.003-.003-.003-.003-.495-.51a.888.888 0 0 1 0-1.223ZM18.01 21.49a.557.557 0 0 0-.806-.001l-.508.524c-.482.5-1.356.436-2.2.376-.918-.066-1.867-.134-2.481.518l-2.101 2.17-5.255-5.427 1.86-1.92a1.93 1.93 0 0 0 2.431-.298c.374-.385.58-.899.58-1.447v-.015h.014c.53 0 1.026-.212 1.398-.596.374-.385.58-.899.58-1.447v-.015h.014c.53 0 1.027-.212 1.4-.597.39-.403.582-.933.578-1.462h.015a1.93 1.93 0 0 0 1.4-.597c.372-.385.577-.9.577-1.447 0-.383-.1-.75-.288-1.067l1.63-1.685a.828.828 0 0 1 .478-.244.822.822 0 0 1 .709.243.89.89 0 0 1 0 1.225l-.495.511-.005.005-.572.59a.604.604 0 0 0 0 .835c.222.23.583.23.806 0l.498-.515.076-.077a.82.82 0 0 1 1.184.002.87.87 0 0 1 .244.612.872.872 0 0 1-.245.612l-.5.517-.571.59a.605.605 0 0 0-.002.834c.222.23.583.231.807.001l.574-.591a.818.818 0 0 1 1.186.001.871.871 0 0 1 .243.611.872.872 0 0 1-.244.612l-.995 1.03a.605.605 0 0 0 0 .834.56.56 0 0 0 .806 0l.488-.505.009-.008a.816.816 0 0 1 .592-.252.82.82 0 0 1 .593.253.888.888 0 0 1 0 1.223l-.496.512v.001h-.001l-.787.814a.605.605 0 0 0 0 .834.56.56 0 0 0 .806 0l.385-.397 1.845 1.907-5.254 5.428-1.882-1.945c.131-.087.257-.19.375-.312l.507-.524a.604.604 0 0 0 0-.834Zm9.577.73-6.114 6.317a.744.744 0 0 1-.539.23.744.744 0 0 1-.539-.23l-1.008-1.041a.794.794 0 0 1-.221-.556c0-.211.078-.409.221-.556l6.114-6.317a.745.745 0 0 1 1.078 0l1.008 1.04a.795.795 0 0 1 .222.556c0 .212-.08.41-.222.557ZM6.875 3.315a.559.559 0 0 0 .807 0 .605.605 0 0 0-.001-.835L5.602.334a.557.557 0 0 0-.806 0 .605.605 0 0 0 0 .835l2.079 2.146Zm14.746.172a.56.56 0 0 0 .403-.172l2.077-2.146a.605.605 0 0 0 0-.835.557.557 0 0 0-.806 0L21.218 2.48a.605.605 0 0 0 0 .834.56.56 0 0 0 .403.173Z"/><path d="M3.558 25.383a.605.605 0 0 0 .007.835l.002.002a.557.557 0 0 0 .806-.008.606.606 0 0 0-.008-.836.557.557 0 0 0-.807.007Zm15.848-4.743c.087 0 .175-.02.257-.063a.6.6 0 0 0 .253-.793.561.561 0 0 0-.766-.26l-.004.001a.598.598 0 0 0-.25.792c.1.205.301.324.51.324Z"/></g><defs><clipPath id="a"><path fill="#fff" d="M0 0h29v30H0z"/></clipPath></defs></svg>
